X:2
T:Alouette variant
T:(för lyssning, noterad för normalstämning)
R:Omstämt
O:variant på fransk visa, Skåne
M:4/4
L:1/4
Q:160
%%printtdmpo 0
K:G
|: G>A BB | A/G/A/B/ GD | G>A BB | A/G/A/B/ G>z :|
[| G/A/B/c/ d/d/d | d/e/d/c/ B/A/G | d/d/d D/D/D | d/d/d D/D/D |
de dc | Bc BA | G>A BB | A/G/A/B/ GD | G>A BB | A/G/A/B/ G>z |]

